X:7
T:Ashton's Folly
C:Andy Hornby 1994
N:Oct 1994
Q:1/4=180
I:abc2nwc
M:4/4
L:1/8
K:C
G cd|e2ef ecBc|A2Bc GcBc|FcBc EcBc|D2dB cBAG|
e2ef ecBc|d2de dBGc|AFDd B3c|c2-c3:|
|:gab|c'gef gecd|ecGF EGcG|AFDd BGgf|edcB AGga/2b/2|
c'gef gecd|ecGF EGcG|AFDd B3c|c2-c3:|
%%vskip 2.5cm
